src/assets/icons/plus.svg

<svg widh="100%" height="100%" viewBox="0 0 24 24" fill="current"
  xmlns="http://www.w3.org/2000/svg">
  <path d="M13.3889 4.91438L13.3889 10.6806L19.1551 10.6806C19.9053 10.6806 20.5092 11.2909 20.5092 12.0347C20.5092 12.7785 19.8989 13.3889 19.1551 13.3889L13.3889 13.3889L13.3889 19.1551C13.3889 19.9053 12.7786 20.5092 12.0347 20.5092C11.2909 20.5092 10.6806 19.8989 10.6806 19.1551L10.6806 13.3889H4.91438C4.16421 13.3889 3.56027 12.7786 3.56024 12.0347C3.56027 11.2909 4.17057 10.6806 4.91438 10.6806H10.6806L10.6806 4.91437C10.6806 4.16421 11.2909 3.56024 12.0347 3.56024C12.7786 3.56027 13.3889 4.16421 13.3889 4.91438Z" />
</svg>

<svg xmlns="http://www.w3.org/2000/svg" fill="currentColor" viewBox="0 0 24 24">
  <path d="M13.389 4.914v5.767h5.766c.75 0 1.354.61 1.354 1.354a1.36 1.36 0 0 1-1.354 1.354H13.39v5.766c0 .75-.61 1.354-1.354 1.354a1.36 1.36 0 0 1-1.354-1.354V13.39H4.914c-.75 0-1.354-.61-1.354-1.354 0-.744.61-1.354 1.354-1.354h5.767V4.914a1.355 1.355 0 0 1 2.708 0Z"/>
</svg>
